car-key.svg

<svg fill="currentColor" viewBox="0 0 24 24"><path d="M9 0C7.3 0 6 1.3 6 3s1.3 3 3 3c1.3 0 2.4-.8 2.8-2H14v2h2V4h2V2h-6.2C11.4.8 10.3 0 9 0m0 2c.6 0 1 .4 1 1s-.4 1-1 1-1-.4-1-1 .4-1 1-1M6.5 8c-.7 0-1.2.4-1.4 1L3 15v8c0 .6.4 1 1 1h1c.6 0 1-.4 1-1v-1h12v1c0 .6.4 1 1 1h1c.6 0 1-.4 1-1v-8l-2.1-6c-.2-.6-.8-1-1.4-1zm0 1.5h11L19 14H5zm0 6.5c.8 0 1.5.7 1.5 1.5S7.3 19 6.5 19 5 18.3 5 17.5 5.7 16 6.5 16m11 0c.8 0 1.5.7 1.5 1.5s-.7 1.5-1.5 1.5-1.5-.7-1.5-1.5.7-1.5 1.5-1.5"/></svg>

<svg  viewBox="0 0 24 24" fill="currentColor"><path  d="M9 0C7.3 0 6 1.3 6 3S7.3 6 9 6C10.3 6 11.4 5.2 11.8 4H14V6H16V4H18V2H11.8C11.4 .8 10.3 0 9 0M9 2C9.6 2 10 2.4 10 3S9.6 4 9 4 8 3.6 8 3 8.4 2 9 2M6.5 8C5.8 8 5.3 8.4 5.1 9L3 15V23C3 23.6 3.4 24 4 24H5C5.6 24 6 23.6 6 23V22H18V23C18 23.6 18.4 24 19 24H20C20.6 24 21 23.6 21 23V15L18.9 9C18.7 8.4 18.1 8 17.5 8H6.5M6.5 9.5H17.5L19 14H5L6.5 9.5M6.5 16C7.3 16 8 16.7 8 17.5S7.3 19 6.5 19 5 18.3 5 17.5 5.7 16 6.5 16M17.5 16C18.3 16 19 16.7 19 17.5S18.3 19 17.5 19 16 18.3 16 17.5 16.7 16 17.5 16Z"/></svg>
